X: 3281
T: Den jydske "Paa Næsen"
T: Polonaise
B:[[Notböcker/Melodier til gamle danske Almuedanse for Violin solo]]
O:Danmark
Z:Søren Bak Vestergaard
M: 3/4
L: 1/8
K: D
A2|A2 (AG)FG|A3 dcd|e2 fd c2|1 d2 z2:|2 d2 z\
|:dcd|e2 fd c2|d2 z dcd|!4!e2 (ec) de|f2 z dcd|\
B2 (GB)Bd|A2 (FA)Ad|e2 fd c2|d2 z2:|
(:musicend:)
(:music:)
